X: 86
T: Pan między wszytkimi
C: Mikołaj Gomółka
%%abc-version 2.0
%%abcx-abcm2ps-target-version 5.9.1 (29 Sep 2008)
%%abc-creator hum2abc beta
%%abcx-conversion-date 2021/10/04 07:59:09
%%abc-edited-by Anna Matuszewska
%%abcx-initial-encoding-date 2020-02-15
%%humdrum-veritas 262717842
%%humdrum-veritas-data 1370761910
%%linebreak <none>
%%barnumbers 0
L: 1/4
M: C|
N: Derived from pl-wn--sd-xvi-qu-273--087_gomolka-mikolaj--pan-miedzy-wszytkimi.krn
%%staves [1 2 3 4]
V: 1 clef=treble
V: 2
V: 3 clef=alto
V: 4
K: C
[V:1] G4c2A2 [I:setbarnb 3][|] 
[V:2] D4E2F2 [|] 
[V:3] B,4C2C2 [|] 
[V:4] G,4C,2F,2 [|] 
[V:1] d2B2c2G2 [|] 
[V:2] F2G2G2G2 [|] 
[V:3] D2D2E3D [|] 
[V:4] D,2G,2C,2E,2 [|] 
[V:1] A2G2G2F2 [|] 
[V:2] F2E2D3C [|] 
[V:3] C4B,2A,2 [|] 
[V:4] F,2C,2D,4 [|] 
[V:1] G4d4 [|] 
[V:2] B,4G4 [|] 
[V:3] G,4B,4 [|] 
[V:4] G,4G,4 [|] 
[V:1] e2>e2d3c [|] 
[V:2] G2>G2G2^F2 [|] 
[V:3] C2>C2B,2A,2 [|] 
[V:4] C,2>C,2G,2D,2 [|] 
[V:1] B2c4d2 [|] 
[V:2] G2G2A2A2 [|] 
[V:3] B,2EDCB,G,A, [|] 
[V:4] G,2CB,A,G,F,E, [|] 
[V:1] f2f2e4 [|] 
[V:2] A2F2G3A [|] 
[V:3] A,2>B,2C4 [|] 
[V:4] D,C,D,2C,D,E,F, [|] 
[V:1] d2e2dcc4 [|] 
[V:2] B2B2A2A2 [|] 
[V:3] B,2G2F2F2 [|] 
[V:4] G,2E,2F,2F,2 [|] 
[V:1] B2c4 [|] 
[V:2] G2>F2E4 [|] 
[V:3] E2D2C4 [|] 
[V:4] G,4C,4 [|] 
[V:1] z2c4d2 [|] 
[V:2] z2G2A2A2 [|] 
[V:3] z2EDCB,A,G, [|] 
[V:4] z2CB,A,G,F,E, [|] 
[V:1] f2f2e4 [|] 
[V:2] A2F2G3A [|] 
[V:3] A,2>B,2C4 [|] 
[V:4] D,C,D,2C,D,E,F, [|] 
[V:1] d2e2dcc4 [|] 
[V:2] B2B2A2A2 [|] 
[V:3] B,2G2F2F2 [|] 
[V:4] G,2E,2F,2F,2 [|] 
[V:1] B2c4 [|] 
[V:2] G2>F2E4 [|] 
[V:3] E2D2C4 [|] 
[V:4] G,4C,4 [|] 


